packages/icons/src/components/Icon/assets/small/expand-more.svg

<svg>
<path fill-rule="evenodd" clip-rule="evenodd" d="M5.21967 9.96967C5.51256 9.67678 5.98744 9.67678 6.28033 9.96967L8 11.6893L9.71967 9.96967C10.0126 9.67678 10.4874 9.67678 10.7803 9.96967C11.0732 10.2626 11.0732 10.7374 10.7803 11.0303L8.53033 13.2803C8.23744 13.5732 7.76256 13.5732 7.46967 13.2803L5.21967 11.0303C4.92678 10.7374 4.92678 10.2626 5.21967 9.96967Z" />
<path fill-rule="evenodd" clip-rule="evenodd" d="M10.7803 5.53033C10.4874 5.82322 10.0126 5.82322 9.71967 5.53033L8 3.81066L6.28033 5.53033C5.98744 5.82322 5.51256 5.82322 5.21967 5.53033C4.92678 5.23744 4.92678 4.76256 5.21967 4.46967L7.46967 2.21967C7.76256 1.92678 8.23744 1.92678 8.53033 2.21967L10.7803 4.46967C11.0732 4.76256 11.0732 5.23744 10.7803 5.53033Z" />
</svg>

<svg>
    <path fill-rule="evenodd" d="M5.22 9.97a.75.75 0 0 1 1.06 0L8 11.69l1.72-1.72a.75.75 0 1 1 1.06 1.06l-2.25 2.25a.75.75 0 0 1-1.06 0l-2.25-2.25a.75.75 0 0 1 0-1.06m5.56-4.44a.75.75 0 0 1-1.06 0L8 3.81 6.28 5.53a.75.75 0 0 1-1.06-1.06l2.25-2.25a.75.75 0 0 1 1.06 0l2.25 2.25a.75.75 0 0 1 0 1.06" clip-rule="evenodd"/>
</svg>
